img/svg/security.svg

<svg width="20" height="20" viewBox="0 0 20 20" fill="none" xmlns="http://www.w3.org/2000/svg">
  <path d="M8 9.32295L9.5 10.8229L12.5 7.82295M4 4.82295L8.65836 2.49377C9.50294 2.07148 10.4971 2.07147 11.3416 2.49377L16 4.82295C16 4.82295 16 9.20295 16 11.5129C16 13.8229 13.8647 15.3823 10 17.8229C6.13533 15.3823 4 13.3229 4 11.5129V4.82295Z" stroke="#F2F4F6" stroke-width="1.5" stroke-linecap="round" stroke-linejoin="round" />
</svg>

<svg width="20" height="20" viewBox="0 0 20 20" fill="none" xmlns="http://www.w3.org/2000/svg"><path d="M8 9.323l1.5 1.5 3-3m-8.5-3l4.658-2.33a3 3 0 012.684 0L16 4.824v6.69c0 2.31-2.135 3.87-6 6.31-3.865-2.44-6-4.5-6-6.31v-6.69z" stroke="#F2F4F6" stroke-width="1.5" stroke-linecap="round" stroke-linejoin="round"/></svg>
